Newaita-dark/actions/22/distribute-horizontal-equal.svg

<svg height="22" viewBox="0 0 22 22" width="22" xmlns="http://www.w3.org/2000/svg"><g fill="#e0e0e0"><path d="m4.09375 6.539062c-.503906 0-.910156.40625-.910156.910157v4.546875c0 .503906.40625.910156.910156.910156h4.546875c.503906 0 .910156-.40625.910156-.910156v-4.546875c0-.503907-.40625-.910157-.910156-.910157zm1.363281 1.820313h1.820313c.25 0 .453125.203125.453125.453125v1.820312c0 .25-.203125.453126-.453125.453126h-1.820313c-.25 0-.453125-.203126-.453125-.453126v-1.820312c0-.25.203125-.453125.453125-.453125zm0 0"/><path d="m8.1875 1.992188h.910156c.25 0 .453125.203124.453125.453124v17.28125c0 .253907-.203125.457032-.453125.457032h-.910156c-.253906 0-.457031-.203125-.457031-.457032v-17.28125c0-.25.203125-.453124.457031-.453124zm0 0"/><path d="m13.1875 6.539062c-.503906 0-.90625.40625-.90625.910157v7.730469c0 .503906.402344.910156.90625.910156h4.550781c.503907 0 .910157-.40625.910157-.910156v-7.730469c0-.503907-.40625-.910157-.910157-.910157zm1.367188 1.820313h1.816406c.253906 0 .457031.203125.457031.453125v5.003906c0 .25-.203125.453125-.457031.453125h-1.816406c-.253907 0-.457032-.203125-.457032-.453125v-5.003906c0-.25.203125-.453125.457032-.453125zm0 0"/><path d="m12.734375 1.992188h.910156c.25 0 .453125.203124.453125.453124v17.28125c0 .253907-.203125.457032-.453125.457032h-.910156c-.25 0-.453125-.203125-.453125-.457032v-17.28125c0-.25.203125-.453124.453125-.453124zm0 0"/><path d="m20.011719 1.992188v3.636718l-2.273438-1.820312zm0 0"/><path d="m1.820312 1.992188v3.636718l2.273438-1.820312zm0 0"/></g></svg>

<svg xmlns="http://www.w3.org/2000/svg" xmlns:xlink="http://www.w3.org/1999/xlink" width="22px" height="22px" viewBox="0 0 22 22" version="1.1">
<g id="surface1">
     <defs>
  <style id="current-color-scheme" type="text/css">
   .ColorScheme-Text { color:#eeeeee; } .ColorScheme-Highlight { color:#424242; }
  </style>
 </defs>
<path style="fill:currentColor" class="ColorScheme-Text" d="M 4.09375 6.539062 C 3.589844 6.539062 3.183594 6.945312 3.183594 7.449219 L 3.183594 11.996094 C 3.183594 12.5 3.589844 12.90625 4.09375 12.90625 L 8.640625 12.90625 C 9.144531 12.90625 9.550781 12.5 9.550781 11.996094 L 9.550781 7.449219 C 9.550781 6.945312 9.144531 6.539062 8.640625 6.539062 Z M 5.457031 8.359375 L 7.277344 8.359375 C 7.527344 8.359375 7.730469 8.5625 7.730469 8.8125 L 7.730469 10.632812 C 7.730469 10.882812 7.527344 11.085938 7.277344 11.085938 L 5.457031 11.085938 C 5.207031 11.085938 5.003906 10.882812 5.003906 10.632812 L 5.003906 8.8125 C 5.003906 8.5625 5.207031 8.359375 5.457031 8.359375 Z M 5.457031 8.359375 "/>
     <defs>
  <style id="current-color-scheme" type="text/css">
   .ColorScheme-Text { color:#eeeeee; } .ColorScheme-Highlight { color:#424242; }
  </style>
 </defs>
<path style="fill:currentColor" class="ColorScheme-Text" d="M 8.1875 1.992188 L 9.097656 1.992188 C 9.347656 1.992188 9.550781 2.195312 9.550781 2.445312 L 9.550781 19.726562 C 9.550781 19.980469 9.347656 20.183594 9.097656 20.183594 L 8.1875 20.183594 C 7.933594 20.183594 7.730469 19.980469 7.730469 19.726562 L 7.730469 2.445312 C 7.730469 2.195312 7.933594 1.992188 8.1875 1.992188 Z M 8.1875 1.992188 "/>
     <defs>
  <style id="current-color-scheme" type="text/css">
   .ColorScheme-Text { color:#eeeeee; } .ColorScheme-Highlight { color:#424242; }
  </style>
 </defs>
<path style="fill:currentColor" class="ColorScheme-Text" d="M 13.1875 6.539062 C 12.683594 6.539062 12.28125 6.945312 12.28125 7.449219 L 12.28125 15.179688 C 12.28125 15.683594 12.683594 16.089844 13.1875 16.089844 L 17.738281 16.089844 C 18.242188 16.089844 18.648438 15.683594 18.648438 15.179688 L 18.648438 7.449219 C 18.648438 6.945312 18.242188 6.539062 17.738281 6.539062 Z M 14.554688 8.359375 L 16.371094 8.359375 C 16.625 8.359375 16.828125 8.5625 16.828125 8.8125 L 16.828125 13.816406 C 16.828125 14.066406 16.625 14.269531 16.371094 14.269531 L 14.554688 14.269531 C 14.300781 14.269531 14.097656 14.066406 14.097656 13.816406 L 14.097656 8.8125 C 14.097656 8.5625 14.300781 8.359375 14.554688 8.359375 Z M 14.554688 8.359375 "/>
     <defs>
  <style id="current-color-scheme" type="text/css">
   .ColorScheme-Text { color:#eeeeee; } .ColorScheme-Highlight { color:#424242; }
  </style>
 </defs>
<path style="fill:currentColor" class="ColorScheme-Text" d="M 12.734375 1.992188 L 13.644531 1.992188 C 13.894531 1.992188 14.097656 2.195312 14.097656 2.445312 L 14.097656 19.726562 C 14.097656 19.980469 13.894531 20.183594 13.644531 20.183594 L 12.734375 20.183594 C 12.484375 20.183594 12.28125 19.980469 12.28125 19.726562 L 12.28125 2.445312 C 12.28125 2.195312 12.484375 1.992188 12.734375 1.992188 Z M 12.734375 1.992188 "/>
     <defs>
  <style id="current-color-scheme" type="text/css">
   .ColorScheme-Text { color:#eeeeee; } .ColorScheme-Highlight { color:#424242; }
  </style>
 </defs>
<path style="fill:currentColor" class="ColorScheme-Text" d="M 20.011719 1.992188 L 20.011719 5.628906 L 17.738281 3.808594 Z M 20.011719 1.992188 "/>
     <defs>
  <style id="current-color-scheme" type="text/css">
   .ColorScheme-Text { color:#eeeeee; } .ColorScheme-Highlight { color:#424242; }
  </style>
 </defs>
<path style="fill:currentColor" class="ColorScheme-Text" d="M 1.820312 1.992188 L 1.820312 5.628906 L 4.09375 3.808594 Z M 1.820312 1.992188 "/>
</g>
</svg>
